usr/share/icons/biglinux-icons-material/scalable/apps/com.uploadedlobster.peek.svg

<svg width="24" height="24" viewBox="0 0 24 24" fill="none" xmlns="http://www.w3.org/2000/svg">
<path fill-rule="evenodd" clip-rule="evenodd" d="M9.59604 1.11359C9.71588 1.11486 9.83043 1.0996 9.93969 1.06779C11.3755 0.973736 12.8111 0.977551 14.2467 1.07924C15.5484 1.18066 16.8085 1.46308 18.0269 1.9265C20.0525 2.76044 21.4386 4.20689 22.185 6.26585C22.6119 7.50549 22.8639 8.78021 22.9411 10.09C23.0478 11.7347 23.0096 13.3758 22.8265 15.0133C22.6895 16.1642 22.3916 17.271 21.933 18.3336C21.0824 20.1761 19.704 21.447 17.7978 22.1463C16.2531 22.6682 14.6647 22.943 13.0325 22.9706C11.1966 23.0661 9.37913 22.9287 7.57997 22.5585C4.26839 21.8208 2.22559 19.8018 1.45158 16.5017C1.12311 15.0161 0.974199 13.5124 1.00483 11.9906C0.968176 10.3724 1.14 8.77709 1.52031 7.20471C2.33171 4.11908 4.2905 2.20701 7.39669 1.46852C8.12048 1.29157 8.8536 1.17326 9.59604 1.11359Z" fill="url(#paint0_radial_3_431)"/>
<path opacity="0.35" fill-rule="evenodd" clip-rule="evenodd" d="M1 11.566C1.00001 11.7073 1.00162 11.8489 1.00483 11.9906C0.974199 13.5124 1.12311 15.0161 1.45158 16.5017C2.22559 19.8018 4.26839 21.8208 7.57997 22.5585C9.37913 22.9287 11.1966 23.0661 13.0325 22.9706C14.6647 22.943 16.2531 22.6682 17.7978 22.1463C19.704 21.447 21.0824 20.1761 21.933 18.3336C22.3916 17.271 22.6895 16.1642 22.8265 15.0133C23.0096 13.3758 23.0478 11.7347 22.941 10.09C22.8639 8.78021 22.6119 7.50549 22.185 6.26585C21.4386 4.20689 20.0525 2.76044 18.0269 1.9265C16.8085 1.46308 15.5484 1.18066 14.2467 1.07924C13.501 1.02641 12.7551 1 12.0093 1C11.3195 1 10.6296 1.0226 9.93969 1.06779C9.83043 1.0996 9.71588 1.11486 9.59604 1.11359C8.8536 1.17326 8.12048 1.29157 7.39669 1.46852C4.2905 2.20701 2.33171 4.11908 1.52031 7.20471C1.17352 8.6385 1.00008 10.0914 1 11.5632C1 11.5642 1 11.5651 1 11.566Z" fill="#E6E6E6"/>
<path d="M19.6154 6.76923H4.38462C3.44998 6.76923 2.69231 7.5269 2.69231 8.46154V18.6154C2.69231 19.55 3.44998 20.3077 4.38462 20.3077H19.6154C20.55 20.3077 21.3077 19.55 21.3077 18.6154V8.46154C21.3077 7.5269 20.55 6.76923 19.6154 6.76923Z" fill="#FF9E1F"/>
<path d="M5.65385 11.8462V9.73077H8.19231M18.3462 11.8462V9.73077H15.8077M18.3462 15.2308V17.3462H15.8077M5.65385 15.2308V17.3462H8.19231" stroke="white" stroke-width="0.846154" stroke-linecap="round"/>
<path d="M19.1923 6.07692C19.8933 6.07692 20.4615 5.50867 20.4615 4.80769C20.4615 4.10672 19.8933 3.53846 19.1923 3.53846C18.4913 3.53846 17.9231 4.10672 17.9231 4.80769C17.9231 5.50867 18.4913 6.07692 19.1923 6.07692Z" fill="#FF5B63"/>
<path d="M9.88461 4.38462H14.1154V5.23077H9.88461V4.38462Z" fill="#333333"/>
<defs>
<radialGradient id="paint0_radial_3_431" cx="0" cy="0" r="1" gradientUnits="userSpaceOnUse" gradientTransform="translate(12 1) rotate(90) scale(22)">
<stop stop-color="#F2F2F2"/>
<stop offset="1" stop-color="#B3B3B3"/>
</radialGradient>
</defs>
</svg>

<svg xmlns="http://www.w3.org/2000/svg" width="24" height="24" fill="none"><path fill="url(#a)" fill-rule="evenodd" d="M9.596 1.114c.12 0 .234-.014.344-.046a31.627 31.627 0 0 1 4.307.011c1.301.102 2.561.384 3.78.848 2.025.833 3.412 2.28 4.158 4.339.427 1.24.679 2.514.756 3.824a27.94 27.94 0 0 1-.114 4.923 11.88 11.88 0 0 1-.894 3.32c-.85 1.843-2.229 3.114-4.135 3.813a15.624 15.624 0 0 1-4.765.825 21.423 21.423 0 0 1-5.453-.413c-3.312-.737-5.354-2.756-6.128-6.056a19.047 19.047 0 0 1-.447-4.511 18.491 18.491 0 0 1 .515-4.786c.812-3.086 2.77-4.998 5.877-5.736a13.953 13.953 0 0 1 2.199-.355Z" clip-rule="evenodd"/><path fill="#E6E6E6" fill-rule="evenodd" d="M1 11.566c0 .141.002.283.005.425-.03 1.521.118 3.025.447 4.51.774 3.3 2.816 5.32 6.128 6.057 1.8.37 3.617.508 5.453.413a15.624 15.624 0 0 0 4.765-.825c1.906-.699 3.284-1.97 4.135-3.812a11.88 11.88 0 0 0 .893-3.32c.184-1.638.222-3.28.115-4.924a14.265 14.265 0 0 0-.756-3.824c-.746-2.06-2.133-3.506-4.158-4.34a13.537 13.537 0 0 0-3.78-.847 31.653 31.653 0 0 0-4.307-.011c-.11.032-.224.047-.344.046-.742.06-1.476.178-2.2.355-3.106.738-5.064 2.65-5.876 5.736A18.48 18.48 0 0 0 1 11.563v.003Z" clip-rule="evenodd" opacity=".35"/><path fill="#FF9E1F" d="M19.615 6.77H4.385c-.935 0-1.693.757-1.693 1.692v10.153c0 .935.758 1.693 1.693 1.693h15.23c.935 0 1.693-.758 1.693-1.693V8.462c0-.935-.758-1.693-1.693-1.693Z"/><path stroke="#fff" stroke-linecap="round" stroke-width=".846" d="M5.654 11.846V9.731h2.538m10.154 2.115V9.731h-2.538m2.538 5.5v2.115h-2.538M5.654 15.231v2.115h2.538"/><path fill="#FF5B63" d="M19.192 6.077a1.27 1.27 0 1 0 0-2.538 1.27 1.27 0 0 0 0 2.538Z"/><path fill="#333" d="M9.885 4.385h4.23v.846h-4.23v-.846Z"/><defs><radialGradient id="a" cx="0" cy="0" r="1" gradientTransform="matrix(0 22 -22 0 12 1)" gradientUnits="userSpaceOnUse"><stop stop-color="#F2F2F2"/><stop offset="1" stop-color="#B3B3B3"/></radialGradient></defs></svg>
